public/2024-summer/birds_sp.svg

<svg width="400" height="1600" viewBox="0 0 400 1600" fill="none" xmlns="http://www.w3.org/2000/svg">
<path d="M391.163 84.61C390.988 91.645 387.677 96.083 381.265 97.749C377.576 98.708 374.265 100.01 371.612 102.915C369.393 105.351 366.11 105.799 363.079 106.59C361.875 106.905 360.636 106.737 360.146 105.407C359.677 104.154 360.951 103.944 361.658 103.447C362.603 102.789 364.017 102.243 363.744 100.948C363.478 99.695 361.973 100.185 361.007 100.003C352.607 98.393 344.515 88.446 344.837 80.06C344.872 79.164 344.676 77.988 345.845 77.736C346.79 77.533 347.196 78.527 347.546 79.234C349.835 83.882 353.86 86.549 358.298 88.789C361.518 90.406 364.731 92.051 367.601 94.277C369.645 95.859 371.829 95.236 373.852 94.347C379.949 91.666 386.102 88.999 388.867 82.174C389.084 81.628 389.518 81.089 390.169 81.236C390.799 81.376 390.974 82.027 391.03 82.622C391.107 83.434 391.128 84.246 391.149 84.61H391.163Z" fill="#F9BB2E"/>
<path d="M37.1842 627.65C34.0902 627.391 30.4152 628.266 26.6912 628.364C25.8022 628.385 24.5842 628.63 24.3042 627.482C24.0452 626.411 25.0952 625.858 25.9142 625.459C33.3482 621.868 41.0902 619.523 49.4692 619.943C51.5622 620.048 53.2072 621 54.4882 622.715C56.0212 624.759 57.6592 626.733 59.2972 628.7C61.0122 630.765 63.1332 631.192 65.8772 631.605C70.1612 632.256 73.9622 635.175 78.3652 636.197C79.0652 636.358 79.5412 637.849 79.9612 638.801C81.9002 643.162 83.6012 647.635 86.2822 651.632C86.7652 652.353 87.5632 653.333 86.5762 654.103C85.6802 654.803 84.7982 653.977 84.1122 653.396C81.4452 651.128 79.0512 648.58 76.8182 645.885C72.8842 641.125 69.5102 640.236 63.5882 642.217C59.7942 643.484 55.8182 643.638 51.8562 643.792C50.1832 643.855 48.9862 643.036 48.0062 641.769C46.5572 639.893 46.8302 638.584 49.2172 637.933C49.4412 637.87 49.6652 637.807 49.8962 637.751C51.8072 637.324 54.5022 637.359 54.9362 635.301C55.4192 633.005 52.7242 632.046 51.1002 630.87C47.1662 628.028 44.8772 627.552 37.1912 627.65H37.1842Z" fill="#F9BB2E"/>
<path d="M116.163 1395.61C115.988 1402.65 112.677 1407.08 106.265 1408.75C102.576 1409.71 99.2649 1411.01 96.6119 1413.92C94.3929 1416.35 91.1099 1416.8 88.0789 1417.59C86.8749 1417.91 85.6359 1417.74 85.1459 1416.41C84.6769 1415.15 85.9509 1414.94 86.6579 1414.45C87.6029 1413.79 89.0169 1413.24 88.7439 1411.95C88.4779 1410.7 86.9729 1411.19 86.0069 1411C77.6069 1409.39 69.5149 1399.45 69.8369 1391.06C69.8719 1390.16 69.6759 1388.99 70.8449 1388.74C71.7899 1388.53 72.1959 1389.53 72.5459 1390.23C74.8349 1394.88 78.8599 1397.55 83.2979 1399.79C86.5179 1401.41 89.7309 1403.05 92.6009 1405.28C94.6449 1406.86 96.8289 1406.24 98.8519 1405.35C104.949 1402.67 111.102 1400 113.867 1393.17C114.084 1392.63 114.518 1392.09 115.169 1392.24C115.799 1392.38 115.974 1393.03 116.03 1393.62C116.107 1394.43 116.128 1395.25 116.149 1395.61H116.163Z" fill="#F9BB2E"/>
</svg>

<svg xmlns="http://www.w3.org/2000/svg" width="400" height="1600" fill="none"><g fill="#F9BB2E" clip-path="url(#a)"><path d="M116.2 1395.6c-.2 7-3.5 11.5-10 13.2-3.6 1-7 2.2-9.6 5.1-2.2 2.4-5.5 2.9-8.5 3.7-1.2.3-2.5.1-3-1.2-.4-1.3.9-1.5 1.6-2 .9-.6 2.3-1.2 2-2.5-.2-1.2-1.7-.7-2.7-.9-8.4-1.6-16.5-11.5-16.2-20 0-.8-.1-2 1-2.3 1-.2 1.4.8 1.7 1.5a22 22 0 0 0 10.8 9.6c3.2 1.6 6.4 3.3 9.3 5.5 2 1.6 4.2 1 6.3 0 6-2.6 12.2-5.3 15-12.1.2-.6.6-1.1 1.3-1 .6.2.8.8.8 1.4l.1 2ZM37.2 627.6c-3.1-.2-6.8.7-10.5.8-.9 0-2.1.2-2.4-1-.3-1 .8-1.5 1.6-2 7.4-3.5 15.2-5.9 23.6-5.5 2 .1 3.7 1.1 5 2.8l4.8 6c1.7 2 3.8 2.5 6.6 2.9 4.3.7 8 3.6 12.5 4.6.7.2 1.1 1.6 1.6 2.6 1.9 4.4 3.6 8.8 6.3 12.8.5.8 1.3 1.7.3 2.5-1 .7-1.8-.1-2.5-.7-2.7-2.3-5-4.8-7.3-7.5-4-4.8-7.3-5.7-13.2-3.7-3.8 1.3-7.8 1.4-11.7 1.6-1.7 0-3-.8-3.9-2-1.4-2-1.2-3.2 1.2-3.9l.7-.1c2-.5 4.6-.4 5-2.5.5-2.3-2.2-3.3-3.8-4.4-4-2.9-6.2-3.3-14-3.3ZM391.2 84.6c-.2 7-3.5 11.5-10 13.1-3.6 1-7 2.3-9.6 5.2-2.2 2.5-5.5 2.9-8.5 3.7-1.2.3-2.5.1-3-1.2-.4-1.2.9-1.5 1.6-2 .9-.6 2.3-1.2 2-2.5-.2-1.2-1.7-.7-2.7-.9-8.4-1.6-16.5-11.6-16.2-20 0-.8-.1-2 1-2.3 1-.2 1.4.8 1.7 1.5a22 22 0 0 0 10.8 9.6c3.2 1.6 6.4 3.3 9.3 5.5 2 1.6 4.2 1 6.3 0 6-2.6 12.2-5.3 15-12.1.2-.6.6-1.1 1.3-1 .6.2.8.8.8 1.4l.1 2Z"/></g><defs><clipPath id="a"><path fill="#fff" d="M0 0h400v1600H0z"/></clipPath></defs></svg>
